images/icons/cart.svg

<svg width="14" height="15" viewBox="0 0 14 15" fill="none" xmlns="http://www.w3.org/2000/svg">
<path fill-rule="evenodd" clip-rule="evenodd" d="M2.83969 2.30571C2.71582 2.30544 2.5964 2.31951 2.48293 2.34626C2.32738 2.00218 2.1219 1.69349 1.88821 1.45896C1.49156 1.06089 0.865982 0.903931 0 0.903931V2.30393C0.529017 2.30393 0.833442 2.38031 0.901793 2.44891C1.16543 2.71348 1.395 3.25107 1.395 3.70393L1.40201 3.80293L2.08547 8.60429C0.941873 8.66383 0.0559378 9.55511 0.000856934 10.6692L0 11.4039C0.0675328 12.5547 0.95052 13.4399 2.05291 13.5028L2.21125 13.503C2.49826 14.3191 3.27358 14.9039 4.185 14.9039C5.09609 14.9039 5.87118 14.3196 6.15843 13.5039H7.79157C8.07882 14.3196 8.85391 14.9039 9.765 14.9039C10.9207 14.9039 11.8575 13.9637 11.8575 12.8039C11.8575 11.6441 10.9207 10.7039 9.765 10.7039C8.85391 10.7039 8.07882 11.2883 7.79157 12.1039H6.15843C5.87118 11.2883 5.09609 10.7039 4.185 10.7039C3.27391 10.7039 2.49882 11.2883 2.21157 12.1039H2.0925C1.73678 12.0825 1.41769 11.7626 1.39375 11.362L1.395 10.7039C1.41381 10.3408 1.73071 10.0228 2.12706 10.0031L3.50402 10.0034L3.514 10.0039H10.544L10.647 9.97114C11.1758 9.80273 11.5992 9.40307 11.7996 8.8857L11.8731 8.73974L12.1118 8.26504C12.3588 7.77367 12.6058 7.28146 12.8465 6.80059C13.4361 5.62268 13.8069 4.87409 13.889 4.69027C14.3106 3.74625 13.4565 3.01965 12.5834 3.00418L2.83969 2.30571ZM10.3017 8.60393H3.56623C3.52144 8.59144 3.48732 8.55336 3.48064 8.50594L2.79716 3.70445L12.4806 4.40038C12.3112 4.74716 12.0032 5.36654 11.6 6.17219L11.5899 6.19238C11.3597 6.65223 11.113 7.14377 10.8664 7.63448L10.6279 8.10857L10.5375 8.28812L10.5035 8.36749C10.4671 8.46936 10.3947 8.55308 10.3017 8.60393ZM9.765 13.5039C10.1502 13.5039 10.4625 13.1905 10.4625 12.8039C10.4625 12.4173 10.1502 12.1039 9.765 12.1039C9.37979 12.1039 9.0675 12.4173 9.0675 12.8039C9.0675 13.1905 9.37979 13.5039 9.765 13.5039ZM4.88251 12.8039C4.88251 13.1905 4.57023 13.5039 4.18501 13.5039C3.79979 13.5039 3.48751 13.1905 3.48751 12.8039C3.48751 12.4173 3.79979 12.1039 4.18501 12.1039C4.57023 12.1039 4.88251 12.4173 4.88251 12.8039Z" fill="white"/>
</svg>

<svg width="14" height="15" fill="none" xmlns="http://www.w3.org/2000/svg"><path fill-rule="evenodd" clip-rule="evenodd" d="M2.84 2.3c-.12 0-.24.02-.36.05a3.04 3.04 0 0 0-.6-.9C1.5 1.07.88.9 0 .9v1.4c.53 0 .83.08.9.15.27.26.5.8.5 1.25v.1l.69 4.8A2.18 2.18 0 0 0 0 10.67v.73a2.2 2.2 0 0 0 2.05 2.1h.16a2.1 2.1 0 0 0 3.95 0h1.63a2.1 2.1 0 0 0 4.07-.7 2.1 2.1 0 0 0-4.07-.7H6.16a2.1 2.1 0 0 0-3.95 0H2.1c-.35-.02-.67-.34-.7-.74v-.66a.77.77 0 0 1 .74-.7h8.41l.1-.03c.54-.17.96-.57 1.16-1.08l.07-.15.24-.47a969.78 969.78 0 0 0 1.78-3.58c.42-.94-.43-1.67-1.3-1.69l-9.75-.7Zm7.46 6.3H3.57a.12.12 0 0 1-.09-.1L2.8 3.7l9.68.7-.88 1.77-.01.02-.72 1.44-.24.48-.1.18-.03.08c-.03.1-.1.18-.2.23Zm-.54 4.9a.7.7 0 1 0 0-1.4.7.7 0 0 0 0 1.4Zm-4.88-.7a.7.7 0 1 1-1.4 0 .7.7 0 0 1 1.4 0Z" fill="#fff"/></svg>
